assets/icons/calendar.svg

<svg width="81" height="86" viewBox="0 0 81 86" fill="none" xmlns="http://www.w3.org/2000/svg">
    <path d="M13.559 3V15.5346H20.1937V3H13.559ZM51.806 3V15.5346H58.4308V3H51.806ZM-0.00012207 9.02453V26.5729H71.9999V9.02453H63.1746V20.2347H47.0622V9.02453H24.9276V20.2347H8.82513V9.02453H-0.00012207ZM-0.00012207 31.1805V83H71.9999V31.1805L-0.00012207 31.1805ZM28.2832 43.1536C31.9482 43.1894 35.4166 44.9365 36.7956 48.1873C37.444 50.1291 37.7893 52.1992 36.9819 54.007C35.9712 56.0925 33.9222 57.1783 31.9119 57.878C35.6847 58.8547 38.1677 61.2087 38.1904 65.0321C38.1295 67.6547 36.8924 69.9777 35.0245 71.4959C33.0383 73.0539 30.6367 73.9241 28.2832 73.9401C21.6462 73.9401 18.3262 70.9711 18.3262 65.0321H24.1852C24.3097 67.5325 25.5013 69.4343 27.9537 69.4679C31.0712 69.2572 32.3056 67.2249 32.3313 64.6225C32.3299 63.0507 31.7515 61.4399 30.3739 60.8341C28.5966 60.1014 26.6126 60.1885 24.8809 60.1867V55.6651C27.7116 55.7236 31.6 55.2281 31.6289 51.8799C31.5188 49.4172 30.5029 47.6601 28.0935 47.6291C25.5269 47.7826 24.1185 49.2302 24.092 51.5165H18.3262C18.4513 45.7517 23.2244 43.1793 28.2832 43.1536ZM48.507 43.7118H53.6704V73.3918H48.0843V49.5249C45.9441 51.3405 43.5754 52.6333 40.9701 53.4025V48.326C44.0096 47.1566 46.5221 45.6197 48.507 43.7118Z"
          fill="#FD5B33"/>
</svg>

<svg xmlns="http://www.w3.org/2000/svg" width="81" height="86" fill="none"><path fill="#FD5B33" d="M13.559 3v12.535h6.635V3h-6.635Zm38.247 0v12.535h6.625V3h-6.625ZM0 9.025v17.548h72V9.025h-8.825v11.21H47.062V9.025H24.928v11.21H8.825V9.025H0ZM0 31.18V83h72V31.18H0Zm28.283 11.974c3.665.035 7.134 1.782 8.513 5.033.648 1.942.993 4.012.186 5.82-1.01 2.086-3.06 3.171-5.07 3.871 3.773.977 6.256 3.33 6.278 7.154a8.582 8.582 0 0 1-3.165 6.464c-1.987 1.558-4.388 2.428-6.742 2.444-6.637 0-9.957-2.969-9.957-8.908h5.86c.124 2.5 1.315 4.402 3.768 4.436 3.117-.21 4.352-2.243 4.377-4.846-.001-1.571-.58-3.182-1.957-3.788-1.777-.733-3.761-.646-5.493-.647v-4.522c2.83.059 6.719-.437 6.748-3.785-.11-2.463-1.126-4.22-3.536-4.25-2.566.153-3.974 1.6-4.001 3.886h-5.766c.125-5.764 4.898-8.337 9.957-8.362Zm20.224.558h5.163v29.68h-5.586V49.525c-2.14 1.816-4.509 3.108-7.114 3.878v-5.077c3.04-1.17 5.552-2.706 7.537-4.614Z"/></svg>
